icons/loop-16.svg

<svg width="16" height="16" viewBox="0 0 16 16" fill="none" xmlns="http://www.w3.org/2000/svg">
<path d="M1.89618 4.55922C4.33696 2.11844 8.29427 2.11844 10.735 4.55922C11.0276 4.85214 11.0278 5.327 10.735 5.61977C10.4423 5.91251 9.96741 5.91227 9.6745 5.61977C7.81951 3.76478 4.81172 3.76478 2.95673 5.61977C1.10188 7.47473 1.10188 10.4816 2.95673 12.3366C4.81172 14.1916 7.81951 14.1916 9.6745 12.3366L13.03 8.98012L11.4772 7.42641C11.3199 7.2689 11.4313 6.99965 11.654 6.99965H15.7497C15.8876 6.99965 15.9995 7.11175 15.9997 7.24965V11.3463C15.9996 11.569 15.7304 11.6806 15.5729 11.5231L14.0905 10.0407L10.735 13.3971C8.29427 15.8379 4.33696 15.8379 1.89618 13.3971C-0.544451 10.9564 -0.544457 6.99997 1.89618 4.55922Z" fill="#59636E"/>
</svg>

<svg xmlns="http://www.w3.org/2000/svg" width="16" height="16" viewBox="0 0 16 16"><path d="M1.896 4.559a6.25 6.25 0 0 1 8.839 0 .75.75 0 0 1-1.06 1.061 4.75 4.75 0 1 0 0 6.717L13.03 8.98l-1.553-1.554A.25.25 0 0 1 11.654 7h4.096a.25.25 0 0 1 .25.25v4.096a.25.25 0 0 1-.427.177l-1.482-1.482-3.356 3.356a6.25 6.25 0 0 1-8.839-8.838Z"/></svg>
